X:18
T:No.138 Con Cassidy's
M:4/4
L:1/8
C:highland
K:D
cd||c<A AG EAAB|cBA^g agae|
c<A AG EAA=c|(3B=cB GB dged:|
=c3e gedB|=cBAb aged|
=c3d efge|dBGB dged|
=c3e gedB|=cBAg abga|
(3bag af gage|dBG2 (3fga ed||
